X: 5
T: No_14_Social_Dance_Song_(b).krn
N: Derived from No_14_Social_Dance_Song_(b).krn
%%abc-version 2.0
%%abcx-abcm2ps-target-version 5.9.1 (29 Sep 2008)
%%abc-creator hum2abc beta
%%abcx-conversion-date 2019/03/15 08:35:00
%%humdrum-veritas 197424290
%%humdrum-veritas-data 2644891935
%%linebreak <none>
%%barnumbers 0
L: 1/16
M: 2/4
K: Eb clef=bass
[K:clef=bass][M:2/4]G,3F, F,3E, [I:setbarnb 2]| 
F,4F,E, z2 | 
G,3F, F,3E, | 
F,4F,E, z2 | 
C3B, G,3F, | 
F,4F,E, z2 | 
G,G,3 F,F,F,3/E,/ | 
F,4F,E, z2 :|]  



